X:61
T:O'Lassie Art Thow SLeeping Yet
S:American Veteran Fifer #61
C:Donated by J.Benjamin, Royal Oak, Mich.
M:6/8
L:1/8
Q:1/8=300
K:D 
%%MIDI program 72
%%MIDI transpose 8
%%MIDI ratio 3 1
B | A2 A AFA | d2d def | g2 e f2 d | edB Bcd |
A2 A AFA | d2 e f2 g | afd efe | d3 d2 :|
|: f | g2 g gab | f2 f fga | e2 e ede | fdB Bcd |
A2 A AFA | d2 e f2 g | afd efe | d3 d2 :|



